!!!!SEGMENT: pl-wtm--r-1344_stefani-jozef--polka-mazurek.krn
!!!cenid: 18xx:2405
!!!COM: Stefani, Józef
!!!COM-rism: pe30024097
!!!CDT: 1800/04/16-1876/03/19
!!!CNT: Polish
!!!OTL: Polka Mazurek
!!!PDT:
!!!AGN: Secular; Mazurka
!!!OMD: Moderato,
!!!SMS-siglum: PL-Wtm
!!!SMS-shelfmark: R 1344
!!!NIFC-rismID: 1001119030
!!!URL-scan: http://repozytorium.nifc.pl/skany/pl-wtm-nut--r1344
!!!ONB-nifc:
!!!SMS-variant:
!!!SMS-altvar:
**kern	**kern	**dynam
*part2	*part1	*part1
*staff2	*staff1	*
*I"Piano	*I"Piano	*
*clefF4	*clefG2	*
*k[b-e-a-]	*k[b-e-a-]	*
*M3/4	*M3/4	*
*>[A,B,B,C,C,D,D,E,C]	*	*
=1	=1	=1
*>A	*	*
4r	4r	.
[>4d\ [>4c\ [>4A-\ [4F\	4dd\ 4cc\ 4a-\	<
8d\] 8c\] 8A-\] 8F\]	8aa-\ 8dd\ 8cc\	.
8r	8r	[
=2	=2	=2
4r	4r	.
4f\ 4d\ 4G\	4bn/ 4g/	<
!	!	!LO:DY:rj
8f\ 8d\ 8G\	8gg\ 8b\ 8g\	[ f
8r;	8r;	.
!!LO:PB:g=original
=3||	=3||	=3||
*>B	*	*
*M3/4	*M3/4	*
!	!LO:TX:a:i:t=Polka Mazurek	!
8GG/	8g/L	p
8r	16r	.
.	(16a-/Jk	.
4f\ 4Bn\ 4G\	4g/)	<
4f\ 4B\ 4G\	4dd\|	[[
=4	=4	=4
8C/	8.ee-\L|	>
8r	.	.
.	16bn\Jk|	]
*	*2\right	*
4e-\ 4c\ 4G\	2cc\|	.
4e-\ 4c\ 4G\	.	.
=5	=5	=5
8GG/	8g/L	.
8r	16r	.
.	(16a-/Jk|	.
4f\ 4Bn\ 4G\	4g/)	<
4f\ 4B\ 4G\	4dd\	[[
=6	=6	=6
.	(8qff/	>
8C/	8.ee-\L)	.
8r	.	.
.	16bn\Jk|	]
*2\right	*	*
2e-\ 2c\ 2G\	2cc\|	.
!!LO:LB:g=original
=7	=7	=7
*^	*	*
4r	2.D\	8b-\L	.
.	.	16r	.
.	.	(16cc\Jk|	.
4f/ 4B-/ 4A-/ 4F/	.	4b-\)	.
4f/ 4B-/ 4A-/ 4F/	.	4ff\	sf
=8	=8	=8	=8
4r	2.E-\	8b-\L|	.
.	.	16r	.
.	.	(16cc\Jk	.
4e-/ 4B-/ 4G/	.	4b-\)	.
4e-/ 4B-/ 4G/	.	4gg\	sf
=9	=9	=9	=9
*clefG2	*	*Xtuplet	*
!	!	!	!LO:DY:rj
4r	2.A-\	12ff\L	f
.	.	12bn\	.
.	.	12cc\J	.
4f/ 4c/	.	4.ff\	.
4f/ 4c/	.	.	.
.	.	8ee-\	.
=10	=10	=10	=10
4r	2B-\	8dd\L|	.
.	.	16r	.
.	.	(16ccc\Jk	.
4a-/ 4f/	.	8bb-\L)	.
.	.	16r	.
.	.	(16dd\Jk	.
4g/	4e-\	4ee-\)	.
*v	*v	*	*
!!LO:LB:g=original
*clefF4	*	*
=11:|!	=11:|!	=11:|!
*>C	*	*
!	!	!LO:DY:rj
4r	8gg\L 8g\	p
.	16r	.
.	(16aa-\Jk 16a-\	.
8.r	4.gg\ 4.g\)	.
(16d\ 16Bn\	.	.
4e-\ 4c\)	.	.
.	8gg-X\ 8g-X\	.
=12	=12	=12
4r	8ff\L 8f\	.
.	16r	.
.	(16ggn\Jk 16gn\|	.
8.r	2ff\ 2f\)	.
(16c\ 16An\	.	.
4d\ 4B-\)	.	.
=13	=13	=13
*	*^	*
4G/ 4GG/	(16ff/KL	4b-\	.
.	8.ee-/J)	.	.
4F/ 4FF/	4dd/	4a-\	.
4F#X/ 4FF#X/	4cc/	4an\	.
*	*v	*v	*
=14	=14	=14
!	!	!LO:DY:rj:t=for
8.G\L 8.GG\	8.bn/L 8.g/	f
16c\Jk 16An\ 16D\	16an/Jk 16f#X/ 16d'/	.
2dn\ 2G\	2g/ 2d/|	.
!!LO:LB:g=original
=15	=15	=15
!	!	!LO:DY:rj
8GG/	8g/L	p
8r	16r	.
.	(16a-/Jk	.
4f\ 4Bn\ 4G\	4g/)	<
4f\ 4B\ 4G\	4dd\	[[
=16	=16	=16
8C/	8.ee-\L	>
8r	.	.
.	16bn\Jk	]
4e-\ 4c\ 4G\	2cc\	.
4e-\ 4c\ 4G\	.	.
=17	=17	=17
8GG/	8g/L	.
8r	16r	.
.	(16a-/Jk	<
4f\ 4Bn\ 4G\	4g/)	.
4f\ 4B\ 4G\	4dd\	[[
=18	=18	=18
.	(8qff/	>
8C/	8.ee-\L)	.
8r	.	.
.	16bn\Jk	]
2e-\ 2c\ 2G\	2cc\	.
!!LO:LB:g=original
=19	=19	=19
*^	*	*
!	!	!	!LO:DY:rj
4r	2.F\	8dd\L|	f
.	.	16r	.
.	.	(16ee-\Jk|	.
4d/ 4A-/	.	4dd\)	.
4d/ 4A-/	.	4aa-\	.
=20	=20	=20	=20
4r	2.G\	8cc\L	.
.	.	16r	.
.	.	(16dd\Jk|	.
4e-/ 4c/	.	4cc\)	.
4e-/ 4c/	.	4gg\	sf
=21	=21	=21	=21
.	.	(8qaa-/	.
4r	2.G\	8gg\)	.
.	.	16r	.
.	.	16ff#X'\	.
4f/ 4d/	.	4gg\|	.
4f/ 4d/	.	4bn\|	.
*v	*v	*	*
=22	=22	=22
.	(8qdd/	.
8C/	8cc\L)	.
8r	16r	.
.	16bn\Jk|	.
!LO:TX:b:t=fine	!	!
2e-\ 2c\ 2G\	2cc'\	.
!!LO:PB:g=original
=23:|!	=23:|!	=23:|!
*>D	*	*
*k[]	*k[]	*
*^	*	*
!	!	!LO:TX:a:i:t=Trio	!
4r	[2C\	8ccc\L 8cc\|	.
.	.	16r	.
.	.	16ddd\Jk 16dd\|	.
[4c/ 4A/ 4F#X/ 4D#X/	.	(4ddd#X\ 4dd#X^<\	.
8c/] 8G/ 8E/	8C\]	8eee\ 8ee\)	.
8r	8r	8r	.
=24	=24	=24	=24
4r	2C\	8ee\L 8cc\|	.
.	.	16r	.
.	.	16ff\Jk 16dd\|	.
[4c/ 4A/ 4F#X/ 4D#X/	.	(4ff#X\ 4dd#X^\	.
8c/] 8G/ 8E/	8C\	8gg\ 8ee\)	.
8r	8r	8r	.
*v	*v	*	*
=25	=25	=25
8GG/	8aa\L 8ff\|	f
8r	16r	.
.	(16gg\Jk 16ee\|	.
4f\ 4B\ 4G\	4ff\ 4dd\)	.
4f\ 4B\ 4G\	4dd\ 4g\	.
!!LO:LB:g=original
=26	=26	=26
8C/	8aa\L 8ff\	.
8r	16r	.
.	(16gg\Jk 16ee\|	.
2e\ 2c\ 2G\	2ee\ 2cc\)	.
=27	=27	=27
*^	*	*
4r	[2C\	8ccc\L 8cc'\	mf
.	.	16r	.
.	.	16ddd\Jk 16dd'\	.
[4c/ 4A/ 4F#X/ 4D#X/	.	(4ddd#X\ 4dd#X\	.
8c/] 8G/ 8E/	8C\]	8eee\ 8ee\)	.
8r	8r	8r	.
=28	=28	=28	=28
4r	[2C\	8ee\L 8cc\|	.
.	.	16r	.
.	.	16ff\Jk 16dd'\	.
[4c/ 4A/ 4F#X/ 4D#X/	.	(4ff#X\ 4dd#X^\	.
8c/] 8G/ 8E/	8C\]	8gg\ 8ee\)	.
8r	8r	8r	.
*v	*v	*	*
!!LO:LB:g=original
=29	=29	=29
!	!	!LO:DY:rj
8GG/	12gg'\L	f
.	(12bb\	.
8r	.	.
.	12aa\J	.
4f\ 4B\ 4G\	4ff\)	.
4f\ 4B\ 4G\	4dd\	.
=30	=30	=30
8C/	12g'\L	.
.	(12ee\	.
8r	.	.
.	12dd\J	.
2e\ 2c\ 2G\	2cc\)	.
=31:|!|:	=31:|!|:	=31:|!|:
*>E	*	*
!	!	!LO:DY:rj
8GG/	12g'\L	p
.	12b'\	.
8r	.	.
.	12dd'\J	.
4f\ 4B\ 4G\	8ff'\	.
.	16r	.
.	(16aa\KL	.
4f\ 4B\ 4G\	8gg\J)	.
.	8r	.
=32	=32	=32
8GG/	(12dd#X\L|	.
.	12ee\)	.
8r	.	.
.	(12ff#X\J|	.
4e\ 4c\ 4G\	8gg\)	.
.	16r	.
.	(16ddd\KL	.
4e\ 4c\ 4G\	8ccc\J)	.
.	8r	.
!!LO:LB:g=original
=33	=33	=33
8GG/	(12bb\L	.
.	12aa\	.
8r	.	.
.	12gg\J	.
4f\ 4d\ 4G\	8ff\)	.
.	16r	.
.	(16b\KL	.
4f\ 4d\ 4G\	8dd\J)	.
.	8r	.
=34	=34	=34
8GG/	(12aa\L	.
.	12gg\)	.
8r	.	.
.	(12cc\J	.
4e\ 4c\ 4G\	8ee\)	.
.	16r	.
.	(16g/KL	.
4e\ 4c\ 4G\	8cc/J)	.
.	8r	.
=35	=35	=35
8GG/	12g'\L	.
.	12b'\	.
8r	.	.
.	12dd'\J	.
4f\ 4B\ 4G\	8ff'\	.
.	16r	.
.	(16aa\KL	.
4f\ 4B\ 4G\	8gg\J)	.
.	8r	.
!!LO:LB:g=original
=36	=36	=36
8C/	(12dd#X\L|	.
.	12ee\)	.
8r	.	.
.	(12ff#X\J|	.
4e\ 4c\ 4G\	8gg\)	.
.	16r	.
.	(16ddd\KL	.
4e\ 4c\ 4G\	8ccc\J)	.
.	8r	.
=37	=37	=37
*^	*	*
!	!	!	!LO:DY:rj:t=for
4r	2.D\	12ff#X'\L	f
.	.	(12eee\ 12ccc\	.
.	.	12ddd\J 12bb\)	.
4d/ 4c/ 4A/	.	8ccc\ 8aa\	.
.	.	16r	.
.	.	(16dd\KL	.
4d/ 4c/ 4A/	.	8ff#\J)	.
.	.	8r	.
*v	*v	*	*
=38	=38	=38
.	(8qaa/	.
8d\L 8B\ 8G\	8gg\L)	.
16r	16r	.
16c\Jk 16A\ 16D\	16ff#X\Jk|	.
!LO:TX:a:t=Da Capo\nmazurek\nal fine	!	!
2B\ 2G\	2gg\|	.
=:|!	=:|!	=:|!
*-	*-	*-
!!!system-decoration: [(s1,s2)]
!!!RDF**kern: > = above
!!!RDF**kern: < = below
!!!EED: Leszek Kubiak
!!!EST: 2021-06-22
!!!ENC: Marcin Jachim
!!!END: 2021-06-11
!!!RDF**kern: | = vertical stroke
